X: 34522
T: Ríl An Spidéil
R: reel
M: 4/4
K: Dmajor
|:AF F2 dFBF|ABdf eB B2|AF F2 dFAF|E3D EFGB|
AF F2 dFBF|ABdf eB B2|g3e fa a2|1 ABde fddB:|2 ABde fdde||
|:f2 df afde|fgaf ge e2|f2 df afdB|ABde fdde|
f2 df afde|fgaf ge e2|g3 b af f2|1 e2 ag efde:|2 e2 ag ed d2||

